static/images/pieces/xiangqi/wikim/black_advisor.svg

<?xml version="1.0" encoding="UTF-8" standalone="no"?>
<svg
   width="100"
   height="100"
   version="1.1"
   id="svg10"
   sodipodi:docname="black_advisor.svg"
   viewBox="-6 -6 112 112"
   inkscape:version="1.2.2 (b0a8486541, 2022-12-01)"
   xmlns:inkscape="http://www.inkscape.org/namespaces/inkscape"
   xmlns:sodipodi="http://sodipodi.sourceforge.net/DTD/sodipodi-0.dtd"
   xmlns="http://www.w3.org/2000/svg"
   xmlns:svg="http://www.w3.org/2000/svg"
   xmlns:rdf="http://www.w3.org/1999/02/22-rdf-syntax-ns#"
   xmlns:cc="http://creativecommons.org/ns#"
   xmlns:dc="http://purl.org/dc/elements/1.1/">
  <defs
     id="defs14" />
  <sodipodi:namedview
     id="namedview12"
     pagecolor="#ffffff"
     bordercolor="#666666"
     borderopacity="1.0"
     inkscape:showpageshadow="2"
     inkscape:pageopacity="0.0"
     inkscape:pagecheckerboard="0"
     inkscape:deskcolor="#d1d1d1"
     showgrid="false"
     inkscape:zoom="2.36"
     inkscape:cx="50.211864"
     inkscape:cy="50"
     inkscape:window-width="1920"
     inkscape:window-height="1022"
     inkscape:window-x="0"
     inkscape:window-y="0"
     inkscape:window-maximized="1"
     inkscape:current-layer="svg10" />
  <title
     id="title2">士</title>
  <!-- 此字型為全字庫正楷體，中華民國國家發展委員會，CNS11643中文標準交換碼全字庫網站，https://www.cns11643.gov.tw/。 -->
  <circle
     r="48.5"
     cx="50"
     cy="50"
     stroke-width="3"
     stroke="#000000"
     fill="#ffddaa"
     id="circle4" />
  <circle
     r="43.5"
     cx="50"
     cy="50"
     stroke-width="3"
     stroke="#000000"
     fill="none"
     id="circle6" />
  <path
     transform="translate(15,14)"
     fill="#000000"
     d="m 28.7,8.3 c -0.2,0.5 0,1.2 0.7,2.7 l 1.1,2.1 -0.1,9.8 -0.1,9.8 -1.6,0.3 c -2.9,0.4 -16.9,2 -20,2.2 -3.5,0.2 -4,0.4 -3.7,1.7 0.2,0.6 1,1.4 2.4,2.3 2.8,1.8 3.9,2 6.5,1.1 2,-0.7 7.3,-1.8 12.2,-2.5 1.3,-0.2 2.9,-0.5 3.4,-0.6 L 30.4,37 v 8.6 c 0,4.8 -0.1,8.7 -0.2,8.7 -0.2,0 -2.9,0.3 -6.1,0.6 -3.1,0.4 -6.5,0.7 -7.5,0.7 -2.3,0.1 -2.9,0.3 -3,1.1 0,0.9 1.9,2.3 4.1,3 1.8,0.6 2.1,0.6 5.5,0 7.1,-1.1 10.1,-1.4 20.9,-1.6 10.6,-0.2 11,-0.2 11.4,-0.9 0.5,-0.7 0.4,-0.8 -0.2,-1.6 -0.9,-1.2 -4.8,-2.8 -6.7,-2.7 -0.9,0 -2.1,0.1 -2.9,0.3 -0.8,0.2 -3.2,0.4 -5.4,0.6 l -4,0.2 0.2,-8.5 c 0.1,-4.6 0.3,-8.5 0.4,-8.7 0.5,-0.5 5.6,-0.7 16.1,-0.7 6,0 11.2,-0.2 11.7,-0.3 1.2,-0.3 1.4,-1.7 0.2,-2.9 -1.3,-1.4 -4.9,-3 -6.8,-2.9 -0.9,0 -5.2,0.4 -9.6,0.9 -4.4,0.5 -8.8,0.9 -9.8,0.9 h -1.9 v -1.3 c 0,-0.7 0.2,-4.3 0.5,-7.9 0.4,-6.3 0.7,-7.9 1.8,-10 0.5,-1 0.2,-1.8 -1.3,-2.8 C 35.1,7.9 29.5,7 28.7,8.3"
     id="path8" />
  <metadata
     id="metadata7839">
    <rdf:RDF>
      <cc:Work
         rdf:about="">
        <dc:title>士</dc:title>
      </cc:Work>
    </rdf:RDF>
  </metadata>
</svg>

<?xml version="1.0" encoding="UTF-8"?>
<svg width="100" height="100"
	xmlns="http://www.w3.org/2000/svg">
	<title>士</title>
	<!-- 此字型為全字庫正楷體，中華民國國家發展委員會，CNS11643中文標準交換碼全字庫網站，https://www.cns11643.gov.tw/。 -->
	<circle r="48.5" cx="50" cy="50" stroke-width="3" stroke="#000" fill="#fda"/>
	<circle r="43.5" cx="50" cy="50" stroke-width="3" stroke="#000" fill="none"/>
	<path transform="translate(15,14)" fill="#000" d="M28.7 8.3 C28.5 8.8,28.7 9.5,29.4 11.0 L30.5 13.1 30.4 22.9 L30.3 32.7 28.7 33.0 C25.8 33.4,11.8 35.0,8.7 35.2 C5.2 35.4,4.7 35.6,5.0 36.9 C5.2 37.5,6.0 38.3,7.4 39.2 C10.2 41.0,11.3 41.2,13.9 40.3 C15.9 39.6,21.2 38.5,26.1 37.8 C27.4 37.6,29.0 37.3,29.5 37.2 L30.4 37.0 30.4 45.6 C30.4 50.4,30.3 54.3,30.2 54.3 C30.0 54.3,27.3 54.6,24.1 54.9 C21.0 55.3,17.6 55.6,16.6 55.6 C14.3 55.7,13.7 55.9,13.6 56.7 C13.6 57.6,15.5 59.0,17.7 59.7 C19.5 60.3,19.8 60.3,23.2 59.7 C30.3 58.6,33.3 58.3,44.1 58.1 C54.7 57.9,55.1 57.9,55.5 57.2 C56.0 56.5,55.9 56.4,55.3 55.6 C54.4 54.4,50.5 52.8,48.6 52.9 C47.7 52.9,46.5 53.0,45.7 53.2 C44.9 53.4,42.5 53.6,40.3 53.8 L36.3 54.0 36.5 45.5 C36.6 40.9,36.8 37.0,36.9 36.8 C37.4 36.3,42.5 36.1,53.0 36.1 C59.0 36.1,64.2 35.9,64.7 35.8 C65.9 35.5,66.1 34.1,64.9 32.9 C63.6 31.5,60.0 29.9,58.1 30.0 C57.2 30.0,52.9 30.4,48.5 30.9 C44.1 31.4,39.7 31.8,38.7 31.8 L36.8 31.8 36.8 30.5 C36.8 29.8,37.0 26.2,37.3 22.6 C37.7 16.3,38.0 14.7,39.1 12.6 C39.6 11.6,39.3 10.8,37.8 9.8 C35.1 7.9,29.5 7.0,28.7 8.3 "/>
</svg>
